X:31
T:The Corsican Nuthatch
R:reel
C:Paul S. Cranford
O:Cape Breton Island
S:http://www.cranfordpub.com
D:currently unrecorded
B:currently unpublished in book form
Z:psc, (re-formatted,updated 9/17/04)
N:
H:                                                        copyrights Cranford Publications, SOCAN
L:1/8
Q:333
M:C|
K:C
cGEc GcEe|dBG^F GABd|cGEc GAce|dcBc A2 AB|
cGEc GcEe|dBG^F GABG|AcBA Gcec|dcAB c2 c z:|
|:A,2 AG AGEg|acgc edcB|cGAE GAce|dcBc A2 eg|
[1acgc edca|gcAc BGAB|cGEc GAce|dcBc A2 A z:|
[2acgc edca|gcAc BGcB|Aage dcde|dcAB c2 cB|]
